X:289
T:Sir Foplin. (p)1687.PLFD.289
M:6/4
L:1/4
Q:3/4=90
S:Playford, Dancing Master,7th Ed,1st Supp,1687.
O:England
H:1687.
Z:Chris Partington
K:Bb
B>cdc2f|g>abagf|bd=ef2g |1g3f3 :|2g3f2|
|:f/g/|a>gfbag|fdec2d|efgfb2 |1a3b2 :|2a3b3|]
